assets/1. P-Z/Scissors/Color/Scissors-color.svg

<svg width="100%" height="100%" viewBox="0 0 32 32" fill="none" xmlns="http://www.w3.org/2000/svg">
<g filter="url(#filter0_i_18_23328)">
<path d="M6.02002 29.7L21.24 14.48L18.17 11.41L5.32002 24.25C4.01002 25.56 4.01002 27.69 5.32002 29L6.02002 29.7Z" fill="url(#paint0_linear_18_23328)"/>
<path d="M6.02002 29.7L21.24 14.48L18.17 11.41L5.32002 24.25C4.01002 25.56 4.01002 27.69 5.32002 29L6.02002 29.7Z" fill="url(#paint1_linear_18_23328)"/>
</g>
<g filter="url(#filter1_i_18_23328)">
<path d="M15.7915 13.652C15.6334 13.8079 15.6325 14.0627 15.7895 14.2197L18.5986 17.0288C18.7559 17.186 19.0112 17.1848 19.167 17.026L20.302 15.8689C20.4225 15.746 20.6086 15.7158 20.7671 15.7831C24.8041 17.4975 29.5802 13.7893 29.5802 9.56001C29.5802 5.96001 26.6802 3.04001 23.0802 3.04001C19.4802 3.04001 16.5602 5.96001 16.5602 9.56001C16.5602 10.457 16.722 11.2669 17.0513 12.0305C17.1193 12.1882 17.0889 12.373 16.9665 12.4936L15.7915 13.652ZM20.0402 9.56001C20.0402 7.89001 21.4002 6.53001 23.0702 6.53001C24.7402 6.53001 26.1002 7.89001 26.1002 9.56001C26.1002 11.23 24.7402 12.59 23.0702 12.59C21.4002 12.59 20.0402 11.24 20.0402 9.56001Z" fill="url(#paint2_linear_18_23328)"/>
</g>
<g filter="url(#filter2_ii_18_23328)">
<path d="M25.1601 29.7L9.94006 14.48L12.9401 11.35L25.7801 24.19C27.1001 25.51 27.1101 27.76 25.8001 29.07L25.1601 29.7Z" fill="url(#paint3_linear_18_23328)"/>
</g>
<g filter="url(#filter3_d_18_23328)">
<path d="M15.5601 18.14C16.1511 18.14 16.6301 17.6609 16.6301 17.07C16.6301 16.4791 16.1511 16 15.5601 16C14.9692 16 14.4901 16.4791 14.4901 17.07C14.4901 17.6609 14.9692 18.14 15.5601 18.14Z" fill="#A79AAC"/>
<path d="M15.5601 18.14C16.1511 18.14 16.6301 17.6609 16.6301 17.07C16.6301 16.4791 16.1511 16 15.5601 16C14.9692 16 14.4901 16.4791 14.4901 17.07C14.4901 17.6609 14.9692 18.14 15.5601 18.14Z" fill="url(#paint4_radial_18_23328)"/>
<path d="M15.5601 18.14C16.1511 18.14 16.6301 17.6609 16.6301 17.07C16.6301 16.4791 16.1511 16 15.5601 16C14.9692 16 14.4901 16.4791 14.4901 17.07C14.4901 17.6609 14.9692 18.14 15.5601 18.14Z" fill="url(#paint5_radial_18_23328)"/>
<path d="M15.5601 18.14C16.1511 18.14 16.6301 17.6609 16.6301 17.07C16.6301 16.4791 16.1511 16 15.5601 16C14.9692 16 14.4901 16.4791 14.4901 17.07C14.4901 17.6609 14.9692 18.14 15.5601 18.14Z" fill="url(#paint6_radial_18_23328)"/>
<path d="M15.5601 18.14C16.1511 18.14 16.6301 17.6609 16.6301 17.07C16.6301 16.4791 16.1511 16 15.5601 16C14.9692 16 14.4901 16.4791 14.4901 17.07C14.4901 17.6609 14.9692 18.14 15.5601 18.14Z" fill="url(#paint7_radial_18_23328)"/>
</g>
<g filter="url(#filter4_i_18_23328)">
<path d="M14.3872 12.3707C14.2714 12.2549 14.2396 12.0786 14.2991 11.9261C16.1642 7.1444 12.3337 3.04001 8.08008 3.04001C4.48008 3.04001 1.58008 5.96001 1.58008 9.56001C1.58008 13.16 4.48008 16.08 8.08008 16.08C8.97556 16.08 9.62284 16.0755 10.3515 15.7801C10.509 15.7163 10.6914 15.7443 10.8123 15.8637L11.9985 17.0357C12.1547 17.19 12.406 17.1895 12.5617 17.0347L15.531 14.0818C15.6879 13.9257 15.6883 13.6718 15.5318 13.5153L14.3872 12.3707ZM8.09008 12.59C6.42008 12.59 5.06008 11.23 5.06008 9.56001C5.06008 7.89001 6.42008 6.53001 8.09008 6.53001C9.76008 6.53001 11.1201 7.89001 11.1201 9.56001C11.1201 11.24 9.76008 12.59 8.09008 12.59Z" fill="url(#paint8_linear_18_23328)"/>
</g>
<g filter="url(#filter5_f_18_23328)">
<circle cx="9.00785" cy="9.26808" r="4.93303" stroke="url(#paint9_linear_18_23328)" stroke-width="0.75"/>
<circle cx="9.00785" cy="9.26808" r="4.93303" stroke="url(#paint10_linear_18_23328)" stroke-width="0.75"/>
</g>
<g filter="url(#filter6_f_18_23328)">
<circle cx="23.693" cy="9.32072" r="4.98201" transform="rotate(-4.45472 23.693 9.32072)" stroke="url(#paint11_linear_18_23328)" stroke-width="0.75"/>
<circle cx="23.693" cy="9.32072" r="4.98201" transform="rotate(-4.45472 23.693 9.32072)" stroke="url(#paint12_linear_18_23328)" stroke-width="0.75"/>
</g>
<g filter="url(#filter7_f_18_23328)">
<path d="M10.9012 14.872C11.3991 14.5449 12.6146 13.6171 13.4929 12.5234" stroke="#FF683C" stroke-width="0.75"/>
</g>
<g filter="url(#filter8_f_18_23328)">
<path d="M20.2838 15.1418C19.8055 14.7866 18.6452 13.7907 17.831 12.6485" stroke="url(#paint13_linear_18_23328)" stroke-width="0.75"/>
</g>
<defs>
<filter id="filter0_i_18_23328" x="4.33752" y="11.36" width="16.9525" height="18.34" filterUnits="userSpaceOnUse" color-interpolation-filters="sRGB">
<feFlood flood-opacity="0" result="BackgroundImageFix"/>
<feBlend mode="normal" in="SourceGraphic" in2="BackgroundImageFix" result="shape"/>
<feColorMatrix in="SourceAlpha" type="matrix" values="0 0 0 0 0 0 0 0 0 0 0 0 0 0 0 0 0 0 127 0" result="hardAlpha"/>
<feOffset dx="0.05" dy="-0.05"/>
<feGaussianBlur stdDeviation="0.05"/>
<feComposite in2="hardAlpha" operator="arithmetic" k2="-1" k3="1"/>
<feColorMatrix type="matrix" values="0 0 0 0 0.631373 0 0 0 0 0.521569 0 0 0 0 0.733333 0 0 0 1 0"/>
<feBlend mode="normal" in2="shape" result="effect1_innerShadow_18_23328"/>
</filter>
<filter id="filter1_i_18_23328" x="15.6723" y="3.04001" width="14.3078" height="14.1059" filterUnits="userSpaceOnUse" color-interpolation-filters="sRGB">
<feFlood flood-opacity="0" result="BackgroundImageFix"/>
<feBlend mode="normal" in="SourceGraphic" in2="BackgroundImageFix" result="shape"/>
<feColorMatrix in="SourceAlpha" type="matrix" values="0 0 0 0 0 0 0 0 0 0 0 0 0 0 0 0 0 0 127 0" result="hardAlpha"/>
<feOffset dx="0.4"/>
<feGaussianBlur stdDeviation="0.4"/>
<feComposite in2="hardAlpha" operator="arithmetic" k2="-1" k3="1"/>
<feColorMatrix type="matrix" values="0 0 0 0 0.690196 0 0 0 0 0.211765 0 0 0 0 0.341176 0 0 0 1 0"/>
<feBlend mode="normal" in2="shape" result="effect1_innerShadow_18_23328"/>
</filter>
<filter id="filter2_ii_18_23328" x="9.89006" y="11.3" width="16.9363" height="18.45" filterUnits="userSpaceOnUse" color-interpolation-filters="sRGB">
<feFlood flood-opacity="0" result="BackgroundImageFix"/>
<feBlend mode="normal" in="SourceGraphic" in2="BackgroundImageFix" result="shape"/>
<feColorMatrix in="SourceAlpha" type="matrix" values="0 0 0 0 0 0 0 0 0 0 0 0 0 0 0 0 0 0 127 0" result="hardAlpha"/>
<feOffset dx="-0.05" dy="0.05"/>
<feGaussianBlur stdDeviation="0.05"/>
<feComposite in2="hardAlpha" operator="arithmetic" k2="-1" k3="1"/>
<feColorMatrix type="matrix" values="0 0 0 0 0.627451 0 0 0 0 0.592157 0 0 0 0 0.658824 0 0 0 1 0"/>
<feBlend mode="normal" in2="shape" result="effect1_innerShadow_18_23328"/>
<feColorMatrix in="SourceAlpha" type="matrix" values="0 0 0 0 0 0 0 0 0 0 0 0 0 0 0 0 0 0 127 0" result="hardAlpha"/>
<feOffset dx="0.05" dy="-0.05"/>
<feGaussianBlur stdDeviation="0.05"/>
<feComposite in2="hardAlpha" operator="arithmetic" k2="-1" k3="1"/>
<feColorMatrix type="matrix" values="0 0 0 0 0.643137 0 0 0 0 0.52549 0 0 0 0 0.74902 0 0 0 1 0"/>
<feBlend mode="normal" in2="effect1_innerShadow_18_23328" result="effect2_innerShadow_18_23328"/>
</filter>
<filter id="filter3_d_18_23328" x="14.1901" y="15.9" width="2.54" height="2.54001" filterUnits="userSpaceOnUse" color-interpolation-filters="sRGB">
<feFlood flood-opacity="0" result="BackgroundImageFix"/>
<feColorMatrix in="SourceAlpha" type="matrix" values="0 0 0 0 0 0 0 0 0 0 0 0 0 0 0 0 0 0 127 0" result="hardAlpha"/>
<feOffset dx="-0.1" dy="0.1"/>
<feGaussianBlur stdDeviation="0.1"/>
<feComposite in2="hardAlpha" operator="out"/>
<feColorMatrix type="matrix" values="0 0 0 0 0.54902 0 0 0 0 0.419608 0 0 0 0 0.658824 0 0 0 1 0"/>
<feBlend mode="normal" in2="BackgroundImageFix" result="effect1_dropShadow_18_23328"/>
<feBlend mode="normal" in="SourceGraphic" in2="effect1_dropShadow_18_23328" result="shape"/>
</filter>
<filter id="filter4_i_18_23328" x="1.58008" y="3.04001" width="14.4688" height="14.1111" filterUnits="userSpaceOnUse" color-interpolation-filters="sRGB">
<feFlood flood-opacity="0" result="BackgroundImageFix"/>
<feBlend mode="normal" in="SourceGraphic" in2="BackgroundImageFix" result="shape"/>
<feColorMatrix in="SourceAlpha" type="matrix" values="0 0 0 0 0 0 0 0 0 0 0 0 0 0 0 0 0 0 127 0" result="hardAlpha"/>
<feOffset dx="0.4"/>
<feGaussianBlur stdDeviation="0.4"/>
<feComposite in2="hardAlpha" operator="arithmetic" k2="-1" k3="1"/>
<feColorMatrix type="matrix" values="0 0 0 0 0.690196 0 0 0 0 0.211765 0 0 0 0 0.341176 0 0 0 1 0"/>
<feBlend mode="normal" in2="shape" result="effect1_innerShadow_18_23328"/>
</filter>
<filter id="filter5_f_18_23328" x="3.19983" y="3.46005" width="11.6161" height="11.6161" filterUnits="userSpaceOnUse" color-interpolation-filters="sRGB">
<feFlood flood-opacity="0" result="BackgroundImageFix"/>
<feBlend mode="normal" in="SourceGraphic" in2="BackgroundImageFix" result="shape"/>
<feGaussianBlur stdDeviation="0.25" result="effect1_foregroundBlur_18_23328"/>
</filter>
<filter id="filter6_f_18_23328" x="17.8358" y="3.46344" width="11.7146" height="11.7146" filterUnits="userSpaceOnUse" color-interpolation-filters="sRGB">
<feFlood flood-opacity="0" result="BackgroundImageFix"/>
<feBlend mode="normal" in="SourceGraphic" in2="BackgroundImageFix" result="shape"/>
<feGaussianBlur stdDeviation="0.25" result="effect1_foregroundBlur_18_23328"/>
</filter>
<filter id="filter7_f_18_23328" x="10.1953" y="11.7886" width="4.09003" height="3.89682" filterUnits="userSpaceOnUse" color-interpolation-filters="sRGB">
<feFlood flood-opacity="0" result="BackgroundImageFix"/>
<feBlend mode="normal" in="SourceGraphic" in2="BackgroundImageFix" result="shape"/>
<feGaussianBlur stdDeviation="0.25" result="effect1_foregroundBlur_18_23328"/>
</filter>
<filter id="filter8_f_18_23328" x="17.0257" y="11.9308" width="3.98173" height="4.01208" filterUnits="userSpaceOnUse" color-interpolation-filters="sRGB">
<feFlood flood-opacity="0" result="BackgroundImageFix"/>
<feBlend mode="normal" in="SourceGraphic" in2="BackgroundImageFix" result="shape"/>
<feGaussianBlur stdDeviation="0.25" result="effect1_foregroundBlur_18_23328"/>
</filter>
<linearGradient id="paint0_linear_18_23328" x1="8.64258" y1="21.0088" x2="11.9238" y2="24.1338" gradientUnits="userSpaceOnUse">
<stop stop-color="#877697"/>
<stop offset="1" stop-color="#BDA7D4"/>
</linearGradient>
<linearGradient id="paint1_linear_18_23328" x1="14.9082" y1="19.0869" x2="14.3145" y2="19.6338" gradientUnits="userSpaceOnUse">
<stop offset="0.606588" stop-color="#7C549C"/>
<stop offset="1" stop-color="#7C549C" stop-opacity="0"/>
</linearGradient>
<linearGradient id="paint2_linear_18_23328" x1="29.5802" y1="10.1772" x2="18.9036" y2="10.1772" gradientUnits="userSpaceOnUse">
<stop stop-color="#FF7415"/>
<stop offset="1" stop-color="#F63178"/>
</linearGradient>
<linearGradient id="paint3_linear_18_23328" x1="18.0878" y1="22.3835" x2="20.9234" y2="19.276" gradientUnits="userSpaceOnUse">
<stop stop-color="#B59FCA"/>
<stop offset="1" stop-color="#887799"/>
</linearGradient>
<radialGradient id="paint4_radial_18_23328" cx="0" cy="0" r="1" gradientUnits="userSpaceOnUse" gradientTransform="translate(15.6426 16.9463) rotate(134.569) scale(1.4695 1.34838)">
<stop offset="0.517871" stop-color="#988098" stop-opacity="0"/>
<stop offset="0.860007" stop-color="#988098"/>
</radialGradient>
<radialGradient id="paint5_radial_18_23328" cx="0" cy="0" r="1" gradientUnits="userSpaceOnUse" gradientTransform="translate(15.0645 18.3056) rotate(-68.142) scale(1.33134 1.18753)">
<stop stop-color="#926BB4"/>
<stop offset="1" stop-color="#926BB4" stop-opacity="0"/>
</radialGradient>
<radialGradient id="paint6_radial_18_23328" cx="0" cy="0" r="1" gradientUnits="userSpaceOnUse" gradientTransform="translate(15.9551 16.915) rotate(139.617) scale(0.518504)">
<stop offset="0.258961" stop-color="#B9AEC4"/>
<stop offset="1" stop-color="#B9AEC4" stop-opacity="0"/>
</radialGradient>
<radialGradient id="paint7_radial_18_23328" cx="0" cy="0" r="1" gradientUnits="userSpaceOnUse" gradientTransform="translate(15.4551 17.7431) rotate(-65.8586) scale(1.91019)">
<stop offset="0.699835" stop-color="#A49EA6" stop-opacity="0"/>
<stop offset="1" stop-color="#A49EA6"/>
</radialGradient>
<linearGradient id="paint8_linear_18_23328" x1="15.8154" y1="10.1772" x2="5.01758" y2="10.1772" gradientUnits="userSpaceOnUse">
<stop stop-color="#FF7415"/>
<stop offset="1" stop-color="#F63178"/>
</linearGradient>
<linearGradient id="paint9_linear_18_23328" x1="14.2356" y1="5.85645" x2="9.94797" y2="8.89925" gradientUnits="userSpaceOnUse">
<stop stop-color="#FF8C72"/>
<stop offset="1" stop-color="#FF8C72" stop-opacity="0"/>
</linearGradient>
<linearGradient id="paint10_linear_18_23328" x1="4.07483" y1="11.2505" x2="6.39803" y2="10.3746" gradientUnits="userSpaceOnUse">
<stop stop-color="#FF638F"/>
<stop offset="1" stop-color="#FF638F" stop-opacity="0"/>
</linearGradient>
<linearGradient id="paint11_linear_18_23328" x1="28.9726" y1="5.87522" x2="24.6425" y2="8.94824" gradientUnits="userSpaceOnUse">
<stop stop-color="#FF8C72"/>
<stop offset="1" stop-color="#FF8C72" stop-opacity="0"/>
</linearGradient>
<linearGradient id="paint12_linear_18_23328" x1="18.711" y1="11.3228" x2="21.0573" y2="10.4382" gradientUnits="userSpaceOnUse">
<stop stop-color="#FF638F"/>
<stop offset="1" stop-color="#FF638F" stop-opacity="0"/>
</linearGradient>
<linearGradient id="paint13_linear_18_23328" x1="18.0482" y1="12.6609" x2="20.3276" y2="17.0759" gradientUnits="userSpaceOnUse">
<stop stop-color="#DB236E"/>
<stop offset="1" stop-color="#DB236E" stop-opacity="0"/>
</linearGradient>
</defs>
</svg>

<svg width="100%" height="100%" viewBox="0 0 32 32" xmlns="http://www.w3.org/2000/svg"><g filter="url(#a)"><path fill="url(#b)" d="m6.02 29.7 15.22-15.22-3.07-3.07L5.32 24.25a3.36 3.36 0 0 0 0 4.75z"/><path fill="url(#c)" d="m6.02 29.7 15.22-15.22-3.07-3.07L5.32 24.25a3.36 3.36 0 0 0 0 4.75z"/></g><g filter="url(#d)"><path fill="url(#e)" d="M15.792 13.652a.4.4 0 0 0-.002.568l2.809 2.809a.4.4 0 0 0 .568-.003l1.135-1.157a.42.42 0 0 1 .465-.086c4.037 1.714 8.813-1.994 8.813-6.223 0-3.6-2.9-6.52-6.5-6.52s-6.52 2.92-6.52 6.52c0 .897.162 1.707.491 2.47a.42.42 0 0 1-.084.464zM20.04 9.56c0-1.67 1.36-3.03 3.03-3.03s3.03 1.36 3.03 3.03-1.36 3.03-3.03 3.03-3.03-1.35-3.03-3.03"/></g><g filter="url(#f)"><path fill="url(#g)" d="M25.16 29.7 9.94 14.48l3-3.13 12.84 12.84c1.32 1.32 1.33 3.57.02 4.88z"/></g><g filter="url(#h)"><path fill="#A79AAC" d="M15.56 18.14a1.07 1.07 0 1 0 0-2.14 1.07 1.07 0 0 0 0 2.14"/><path fill="url(#i)" d="M15.56 18.14a1.07 1.07 0 1 0 0-2.14 1.07 1.07 0 0 0 0 2.14"/><path fill="url(#j)" d="M15.56 18.14a1.07 1.07 0 1 0 0-2.14 1.07 1.07 0 0 0 0 2.14"/><path fill="url(#k)" d="M15.56 18.14a1.07 1.07 0 1 0 0-2.14 1.07 1.07 0 0 0 0 2.14"/><path fill="url(#l)" d="M15.56 18.14a1.07 1.07 0 1 0 0-2.14 1.07 1.07 0 0 0 0 2.14"/></g><g filter="url(#m)"><path fill="url(#n)" d="M14.387 12.37a.42.42 0 0 1-.088-.444C16.164 7.144 12.334 3.04 8.08 3.04c-3.6 0-6.5 2.92-6.5 6.52s2.9 6.52 6.5 6.52c.896 0 1.543-.004 2.271-.3a.43.43 0 0 1 .461.084L12 17.036a.4.4 0 0 0 .563-.001l2.969-2.953a.4.4 0 0 0 0-.567zm-6.297.22c-1.67 0-3.03-1.36-3.03-3.03s1.36-3.03 3.03-3.03 3.03 1.36 3.03 3.03c0 1.68-1.36 3.03-3.03 3.03"/></g><g stroke-width=".75" filter="url(#o)"><circle cx="9.008" cy="9.268" r="4.933" stroke="url(#p)"/><circle cx="9.008" cy="9.268" r="4.933" stroke="url(#q)"/></g><g stroke-width=".75" filter="url(#r)" transform="rotate(-4.455 23.693 9.32)"><circle cx="23.693" cy="9.321" r="4.982" stroke="url(#s)"/><circle cx="23.693" cy="9.321" r="4.982" stroke="url(#t)"/></g><g filter="url(#u)"><path stroke="#FF683C" stroke-width=".75" d="M10.901 14.872c.498-.327 1.714-1.255 2.592-2.349"/></g><g filter="url(#v)"><path stroke="url(#w)" stroke-width=".75" d="M20.284 15.142c-.479-.355-1.639-1.351-2.453-2.493"/></g><defs><linearGradient id="b" x1="8.643" x2="11.924" y1="21.009" y2="24.134" gradientUnits="userSpaceOnUse"><stop stop-color="#877697"/><stop offset="1" stop-color="#BDA7D4"/></linearGradient><linearGradient id="c" x1="14.908" x2="14.315" y1="19.087" y2="19.634" gradientUnits="userSpaceOnUse"><stop offset=".607" stop-color="#7C549C"/><stop offset="1" stop-color="#7C549C" stop-opacity="0"/></linearGradient><linearGradient id="e" x1="29.58" x2="18.904" y1="10.177" y2="10.177" gradientUnits="userSpaceOnUse"><stop stop-color="#FF7415"/><stop offset="1" stop-color="#F63178"/></linearGradient><linearGradient id="g" x1="18.088" x2="20.923" y1="22.384" y2="19.276" gradientUnits="userSpaceOnUse"><stop stop-color="#B59FCA"/><stop offset="1" stop-color="#879"/></linearGradient><linearGradient id="n" x1="15.815" x2="5.018" y1="10.177" y2="10.177" gradientUnits="userSpaceOnUse"><stop stop-color="#FF7415"/><stop offset="1" stop-color="#F63178"/></linearGradient><linearGradient id="p" x1="14.236" x2="9.948" y1="5.856" y2="8.899" gradientUnits="userSpaceOnUse"><stop stop-color="#FF8C72"/><stop offset="1" stop-color="#FF8C72" stop-opacity="0"/></linearGradient><linearGradient id="q" x1="4.075" x2="6.398" y1="11.251" y2="10.375" gradientUnits="userSpaceOnUse"><stop stop-color="#FF638F"/><stop offset="1" stop-color="#FF638F" stop-opacity="0"/></linearGradient><linearGradient id="s" x1="28.973" x2="24.642" y1="5.875" y2="8.948" gradientUnits="userSpaceOnUse"><stop stop-color="#FF8C72"/><stop offset="1" stop-color="#FF8C72" stop-opacity="0"/></linearGradient><linearGradient id="t" x1="18.711" x2="21.057" y1="11.323" y2="10.438" gradientUnits="userSpaceOnUse"><stop stop-color="#FF638F"/><stop offset="1" stop-color="#FF638F" stop-opacity="0"/></linearGradient><linearGradient id="w" x1="18.048" x2="20.328" y1="12.661" y2="17.076" gradientUnits="userSpaceOnUse"><stop stop-color="#DB236E"/><stop offset="1" stop-color="#DB236E" stop-opacity="0"/></linearGradient><filter id="a" width="16.953" height="18.34" x="4.338" y="11.36" color-interpolation-filters="sRGB" filterUnits="userSpaceOnUse"><feFlood flood-opacity="0" result="BackgroundImageFix"/><feBlend in="SourceGraphic" in2="BackgroundImageFix" result="shape"/><feColorMatrix in="SourceAlpha" result="hardAlpha" values="0 0 0 0 0 0 0 0 0 0 0 0 0 0 0 0 0 0 127 0"/><feOffset dx=".05" dy="-.05"/><feGaussianBlur stdDeviation=".05"/><feComposite in2="hardAlpha" k2="-1" k3="1" operator="arithmetic"/><feColorMatrix values="0 0 0 0 0.631373 0 0 0 0 0.521569 0 0 0 0 0.733333 0 0 0 1 0"/><feBlend in2="shape" result="effect1_innerShadow_18_23328"/></filter><filter id="d" width="14.308" height="14.106" x="15.672" y="3.04" color-interpolation-filters="sRGB" filterUnits="userSpaceOnUse"><feFlood flood-opacity="0" result="BackgroundImageFix"/><feBlend in="SourceGraphic" in2="BackgroundImageFix" result="shape"/><feColorMatrix in="SourceAlpha" result="hardAlpha" values="0 0 0 0 0 0 0 0 0 0 0 0 0 0 0 0 0 0 127 0"/><feOffset dx=".4"/><feGaussianBlur stdDeviation=".4"/><feComposite in2="hardAlpha" k2="-1" k3="1" operator="arithmetic"/><feColorMatrix values="0 0 0 0 0.690196 0 0 0 0 0.211765 0 0 0 0 0.341176 0 0 0 1 0"/><feBlend in2="shape" result="effect1_innerShadow_18_23328"/></filter><filter id="f" width="16.936" height="18.45" x="9.89" y="11.3" color-interpolation-filters="sRGB" filterUnits="userSpaceOnUse"><feFlood flood-opacity="0" result="BackgroundImageFix"/><feBlend in="SourceGraphic" in2="BackgroundImageFix" result="shape"/><feColorMatrix in="SourceAlpha" result="hardAlpha" values="0 0 0 0 0 0 0 0 0 0 0 0 0 0 0 0 0 0 127 0"/><feOffset dx="-.05" dy=".05"/><feGaussianBlur stdDeviation=".05"/><feComposite in2="hardAlpha" k2="-1" k3="1" operator="arithmetic"/><feColorMatrix values="0 0 0 0 0.627451 0 0 0 0 0.592157 0 0 0 0 0.658824 0 0 0 1 0"/><feBlend in2="shape" result="effect1_innerShadow_18_23328"/><feColorMatrix in="SourceAlpha" result="hardAlpha" values="0 0 0 0 0 0 0 0 0 0 0 0 0 0 0 0 0 0 127 0"/><feOffset dx=".05" dy="-.05"/><feGaussianBlur stdDeviation=".05"/><feComposite in2="hardAlpha" k2="-1" k3="1" operator="arithmetic"/><feColorMatrix values="0 0 0 0 0.643137 0 0 0 0 0.52549 0 0 0 0 0.74902 0 0 0 1 0"/><feBlend in2="effect1_innerShadow_18_23328" result="effect2_innerShadow_18_23328"/></filter><filter id="h" width="2.54" height="2.54" x="14.19" y="15.9" color-interpolation-filters="sRGB" filterUnits="userSpaceOnUse"><feFlood flood-opacity="0" result="BackgroundImageFix"/><feColorMatrix in="SourceAlpha" result="hardAlpha" values="0 0 0 0 0 0 0 0 0 0 0 0 0 0 0 0 0 0 127 0"/><feOffset dx="-.1" dy=".1"/><feGaussianBlur stdDeviation=".1"/><feComposite in2="hardAlpha" operator="out"/><feColorMatrix values="0 0 0 0 0.54902 0 0 0 0 0.419608 0 0 0 0 0.658824 0 0 0 1 0"/><feBlend in2="BackgroundImageFix" result="effect1_dropShadow_18_23328"/><feBlend in="SourceGraphic" in2="effect1_dropShadow_18_23328" result="shape"/></filter><filter id="m" width="14.469" height="14.111" x="1.58" y="3.04" color-interpolation-filters="sRGB" filterUnits="userSpaceOnUse"><feFlood flood-opacity="0" result="BackgroundImageFix"/><feBlend in="SourceGraphic" in2="BackgroundImageFix" result="shape"/><feColorMatrix in="SourceAlpha" result="hardAlpha" values="0 0 0 0 0 0 0 0 0 0 0 0 0 0 0 0 0 0 127 0"/><feOffset dx=".4"/><feGaussianBlur stdDeviation=".4"/><feComposite in2="hardAlpha" k2="-1" k3="1" operator="arithmetic"/><feColorMatrix values="0 0 0 0 0.690196 0 0 0 0 0.211765 0 0 0 0 0.341176 0 0 0 1 0"/><feBlend in2="shape" result="effect1_innerShadow_18_23328"/></filter><filter id="o" width="11.616" height="11.616" x="3.2" y="3.46" color-interpolation-filters="sRGB" filterUnits="userSpaceOnUse"><feFlood flood-opacity="0" result="BackgroundImageFix"/><feBlend in="SourceGraphic" in2="BackgroundImageFix" result="shape"/><feGaussianBlur result="effect1_foregroundBlur_18_23328" stdDeviation=".25"/></filter><filter id="r" width="11.715" height="11.715" x="17.836" y="3.463" color-interpolation-filters="sRGB" filterUnits="userSpaceOnUse"><feFlood flood-opacity="0" result="BackgroundImageFix"/><feBlend in="SourceGraphic" in2="BackgroundImageFix" result="shape"/><feGaussianBlur result="effect1_foregroundBlur_18_23328" stdDeviation=".25"/></filter><filter id="u" width="4.09" height="3.897" x="10.195" y="11.789" color-interpolation-filters="sRGB" filterUnits="userSpaceOnUse"><feFlood flood-opacity="0" result="BackgroundImageFix"/><feBlend in="SourceGraphic" in2="BackgroundImageFix" result="shape"/><feGaussianBlur result="effect1_foregroundBlur_18_23328" stdDeviation=".25"/></filter><filter id="v" width="3.982" height="4.012" x="17.026" y="11.931" color-interpolation-filters="sRGB" filterUnits="userSpaceOnUse"><feFlood flood-opacity="0" result="BackgroundImageFix"/><feBlend in="SourceGraphic" in2="BackgroundImageFix" result="shape"/><feGaussianBlur result="effect1_foregroundBlur_18_23328" stdDeviation=".25"/></filter><radialGradient id="i" cx="0" cy="0" r="1" gradientTransform="matrix(-1.03125 1.04688 -.9606 -.94625 15.643 16.946)" gradientUnits="userSpaceOnUse"><stop offset=".518" stop-color="#988098" stop-opacity="0"/><stop offset=".86" stop-color="#988098"/></radialGradient><radialGradient id="j" cx="0" cy="0" r="1" gradientTransform="rotate(-68.142 21.066 -1.984)scale(1.33134 1.18753)" gradientUnits="userSpaceOnUse"><stop stop-color="#926BB4"/><stop offset="1" stop-color="#926BB4" stop-opacity="0"/></radialGradient><radialGradient id="k" cx="0" cy="0" r="1" gradientTransform="scale(-.5185)rotate(-40.383 -59.739 25.525)" gradientUnits="userSpaceOnUse"><stop offset=".259" stop-color="#B9AEC4"/><stop offset="1" stop-color="#B9AEC4" stop-opacity="0"/></radialGradient><radialGradient id="l" cx="0" cy="0" r="1" gradientTransform="rotate(-65.859 21.426 -3.06)scale(1.91019)" gradientUnits="userSpaceOnUse"><stop offset=".7" stop-color="#A49EA6" stop-opacity="0"/><stop offset="1" stop-color="#A49EA6"/></radialGradient></defs></svg>
